src/utils/icons/main/topPodcasts/podcast_1.svg

<svg width="80" height="81" viewBox="0 0 80 81" fill="none" xmlns="http://www.w3.org/2000/svg">
<path d="M48.7013 27.7154L19.5179 56.5L11.2987 48.3932C6.90042 44.055 6.90042 37.0214 11.2987 32.6832L32.5183 11.7536C36.9166 7.41545 44.0477 7.41545 48.446 11.7537L48.7013 12.0054C53.0996 16.3436 53.0996 23.3772 48.7013 27.7154Z" fill="#FFD11A"/>
<path d="M31.2987 53.2846L60.4821 24.5L68.7013 32.6068C73.0996 36.945 73.0996 43.9786 68.7013 48.3168L47.4817 69.2463C43.0834 73.5845 35.9523 73.5845 31.554 69.2463L31.2987 68.9946C26.9004 64.6564 26.9004 57.6228 31.2987 53.2846Z" fill="#404040"/>
</svg>

<svg xmlns="http://www.w3.org/2000/svg" width="80" height="81" fill="none"><path fill="#FFD11A" d="M48.701 27.715 19.518 56.5l-8.22-8.107a11 11 0 0 1 0-15.71l21.22-20.93c4.399-4.338 11.53-4.338 15.928 0l.255.252a11 11 0 0 1 0 15.71"/><path fill="#404040" d="M31.299 53.285 60.482 24.5l8.22 8.107a11 11 0 0 1 0 15.71l-21.22 20.93c-4.399 4.338-11.53 4.338-15.928 0l-.255-.252a11 11 0 0 1 0-15.71"/></svg>
